assets/icons/drive/harddisk-broken.svg

<?xml version="1.0" encoding="UTF-8" standalone="no"?>
<svg viewBox="0 0 24 24" height="24" width="24" version="1.1" id="svg10" sodipodi:docname="harddisk-full.svg" inkscape:version="1.2 (1:1.2.1+202207142221+cd75a1ee6d)"
   xmlns:inkscape="http://www.inkscape.org/namespaces/inkscape"
   xmlns:sodipodi="http://sodipodi.sourceforge.net/DTD/sodipodi-0.dtd"
   xmlns="http://www.w3.org/2000/svg"
   xmlns:svg="http://www.w3.org/2000/svg">
   <defs id="defs14" />
   <sodipodi:namedview id="namedview12" pagecolor="#ffffff" bordercolor="#666666" borderopacity="1.0" inkscape:pageshadow="2" inkscape:pageopacity="0.0" inkscape:pagecheckerboard="0" showgrid="true" inkscape:snap-page="true" inkscape:zoom="17.96875" inkscape:cx="11.464348" inkscape:cy="19.84" inkscape:window-width="1846" inkscape:window-height="1016" inkscape:window-x="0" inkscape:window-y="0" inkscape:window-maximized="1" inkscape:current-layer="svg10" inkscape:snap-grids="false" inkscape:showpageshadow="2" inkscape:deskcolor="#d1d1d1">
      <inkscape:grid type="xygrid" id="grid957" />
      <inkscape:grid type="xygrid" id="grid825" dotted="true" spacingx="0.5" spacingy="0.5" empspacing="10" />
   </sodipodi:namedview>
   <path id="path1416" style="fill:#808080;fill-rule:evenodd;stroke-width:0.5;stroke-linecap:round;fill-opacity:1" d="M 7.4550781 2 C 6.4864992 2.0089807 5.7372579 2.0732701 5.1171875 2.4453125 C 4.7038072 2.6933408 4.3972494 3.101221 4.2285156 3.6074219 C 4.0597821 4.1136228 4 4.7222246 4 5.5 L 4 12 L 5 12 L 5 5.5 C 5 4.7777799 5.0652192 4.2613748 5.1777344 3.9238281 C 5.2902499 3.5862817 5.4211946 3.4316583 5.6328125 3.3046875 C 6.0560482 3.0507462 7.0000045 3 8.5 3 L 15.5 3 C 16.999996 3 17.943952 3.0507466 18.367188 3.3046875 C 18.578805 3.4316583 18.70975 3.5862817 18.822266 3.9238281 C 18.934781 4.2613748 19 4.7777799 19 5.5 L 19 12 L 20 12 L 20 5.5 C 20 4.7222246 19.94022 4.1136228 19.771484 3.6074219 C 19.602752 3.101221 19.296194 2.6933408 18.882812 2.4453125 C 18.056052 1.9492562 16.999996 2 15.5 2 L 8.5 2 C 8.1250011 2 7.7779378 1.9970064 7.4550781 2 z M 11.925781 9 C 11.294578 9.0092793 10.670632 9.1385823 10.085938 9.3808594 C 8.8512905 9.8922786 7.9262186 10.851346 7.4238281 12 L 8.5390625 12 C 8.9659704 11.260671 9.6282977 10.65306 10.46875 10.304688 C 12.033077 9.6607704 13.833345 10.070563 14.964844 11.328125 L 14.292969 12 L 15.707031 12 L 16.353516 11.353516 L 15.669922 10.623047 C 14.773294 9.6436266 13.523891 9.0610879 12.197266 9.0039062 C 12.106921 9.0003383 12.015953 8.9986744 11.925781 9 z M 4 15 L 4 18.5 C 4 19.277775 4.0597824 19.886378 4.2285156 20.392578 C 4.3972494 20.89878 4.7038072 21.30666 5.1171875 21.554688 C 5.9439481 22.050744 7.0000045 22 8.5 22 L 15.5 22 C 16.999996 22 18.056052 22.050739 18.882812 21.554688 C 19.296194 21.30666 19.602752 20.89878 19.771484 20.392578 C 19.940218 19.886378 20 19.277775 20 18.5 L 20 15 L 19 15 L 19 18.5 C 19 19.222219 18.93478 19.738625 18.822266 20.076172 C 18.70975 20.413719 18.578805 20.568344 18.367188 20.695312 C 17.943952 20.949254 16.999997 21 15.5 21 L 8.5 21 C 7.0000045 21 6.0560482 20.94925 5.6328125 20.695312 C 5.4211946 20.568344 5.2902499 20.413719 5.1777344 20.076172 C 5.0652188 19.738625 5 19.222219 5 18.5 L 5 15 L 4 15 z M 7.1015625 15 C 7.1217452 15.098654 7.1435386 15.196506 7.1699219 15.294922 C 7.8197653 17.718233 10.164903 19.284724 12.652344 18.957031 C 14.801092 18.67427 16.480346 17.05326 16.898438 15 L 15.871094 15 C 15.471413 16.546234 14.169564 17.748133 12.521484 17.964844 C 10.531946 18.226364 8.6565399 16.97331 8.1367188 15.035156 C 8.1335756 15.023427 8.1319385 15.011736 8.1289062 15 L 7.1015625 15 z M 10.267578 15 A 2 2 0 0 0 12 16 A 2 2 0 0 0 13.732422 15 L 12 15 L 10.267578 15 z " />
   <rect style="fill:#808080;stroke-width:15.1181;stroke-linejoin:round" id="rect343" width="20" height="1" x="2" y="13" />
</svg>

<svg height="24" width="24" xmlns="http://www.w3.org/2000/svg"><path style="fill:gray;stroke-width:.5;stroke-linecap:round;fill-opacity:1" d="M7.455 2c-.969.009-1.718.073-2.338.445-.413.248-.72.656-.888 1.162C4.059 4.114 4 4.722 4 5.5V12h1V5.5c0-.722.065-1.239.178-1.576.112-.338.243-.492.455-.62C6.056 3.052 7 3 8.5 3h7c1.5 0 2.444.05 2.867.305.212.127.343.281.455.619.113.337.178.854.178 1.576V12h1V5.5c0-.778-.06-1.386-.229-1.893-.168-.506-.475-.914-.888-1.162C18.056 1.95 17 2 15.5 2h-7c-.375 0-.722-.003-1.045 0zm4.47 7a4.984 4.984 0 0 0-4.502 3H8.54a3.987 3.987 0 0 1 1.93-1.695 4 4 0 0 1 4.496 1.023l-.672.672h1.414l.647-.646-.684-.731A5 5 0 0 0 11.926 9zM4 15v3.5c0 .778.06 1.386.229 1.893.168.506.475.914.888 1.162C5.944 22.05 7 22 8.5 22h7c1.5 0 2.556.05 3.383-.445.413-.248.72-.656.888-1.162.17-.507.229-1.115.229-1.893V15h-1v3.5c0 .722-.065 1.239-.178 1.576-.112.338-.243.492-.455.62C17.944 20.948 17 21 15.5 21h-7c-1.5 0-2.444-.05-2.867-.305-.212-.127-.343-.281-.455-.619C5.065 19.74 5 19.222 5 18.5V15H4zm3.102 0a5 5 0 0 0 9.797 0H15.87a4 4 0 0 1-7.734.035L8.129 15H7.102zm3.166 0A2 2 0 0 0 12 16a2 2 0 0 0 1.732-1h-3.464z"/><path style="fill:gray;stroke-width:15.1181;stroke-linejoin:round" d="M2 13h20v1H2z"/></svg>
